svg/device_info.svg

<svg width="24" height="24" viewBox="0 0 24 24" xmlns="http://www.w3.org/2000/svg"><path fill-rule="evenodd" clip-rule="evenodd" d="M19 12c-3.9 0-7 3.1-7 7 0 .7.1 1.4.3 2H5c-1.1 0-2-.9-2-2V5c0-1.1.9-2 2-2h14c1.1 0 2 .9 2 2v7.3c-.6-.2-1.3-.3-2-.3zM5 5v3h14V5H5z"/><path d="M18 16a1 1 0 1 0 0-2 1 1 0 0 0 0 2zM19 17h-2v4h2v-4z"/></svg>

<svg width="24" height="24" viewBox="0 0 24 24"  xmlns="http://www.w3.org/2000/svg">
<path fill-rule="evenodd" clip-rule="evenodd" d="M19 12C15.1 12 12 15.1 12 19C12 19.7 12.1 20.4 12.3 21H5C3.9 21 3 20.1 3 19V5C3 3.9 3.9 3 5 3H19C20.1 3 21 3.9 21 5V12.3C20.4 12.1 19.7 12 19 12ZM5 5V8H19V5H5Z" />
<path d="M18 16C18.5523 16 19 15.5523 19 15C19 14.4477 18.5523 14 18 14C17.4477 14 17 14.4477 17 15C17 15.5523 17.4477 16 18 16Z" />
<path d="M19 17H17V21H19V17Z" />
</svg>
